X:133
T:When Sick is it Tea You Want?
C:Traditional
S:Fife & Drum tune learned from Paul & Susan Heasty
M:6/8
R:Jig
L:1/8
K:D
Add dcB | ABA AFA | Add d2e | fdB B3 |
Add dcB | ABA AFA | dcd ede | fdc d3 :|
|: add dcd | BGG G3 | bee ede | cAA A3 |
Add dcB | ABA AFA | dcd ede | fdc d3 :|

%%newpage
%%scale .7
%%staffsep 35

